!!!OTL: Was hab' ich denn meinem Feinsliebchen gethan?
!!!OTL-incipit: WAS HAB ICH DENN MEINEM FEINSLIEBCHEN GETAN
!!!COM: Volksweise
!!!ARE: Europa, Mitteleuropa, Deutschland
!!!SCT: F0816
!!!TXL: @@DE
!!!YEM: Copyright 1995, estate of Helmut Schaffrath.
**kern	**text
*ICvox	*
*M4/4	*
*met(c)	*
*k[f#c#g#d#]	*
*E:	*
!LO:TX:a:t=Ziemlich langsam.	!
{(8eL	1._Was
8g#J)	.
=1	=1
8b	hab'
8b	.
8b	ich
8b	denn
(8bL	mei-
8cc#J)	.
8b	-nem
8a	Feins-
=2	=2
4a	-lieb-
8g#	-chen
8g#	ge-
(4b/	-than?
8a)}	.
{8g#	es
=3	=3
4g#	geht
8f#	ja
8f#	vor-
4cc#	-ü-
8b	-ber
8a	und
=4	=4
4a	ſchaut
8.g#	mich
16g#	nicht
4b	an;
8r}	.
{8b	es
=5	=5
4b/	ſchlägt
8.f#	ſei-
16b	-ne
(<4b	Aeuglein
8dd#)	.
8dd#	wohl
=6	=6
(>8dd#/JL	un-
8cc#	.
8.ff#J)	.
16ee/	-ter
(>8.dd#/L	ſich
16cc#	.
8bJ)}	.
{8b	und
=7	=7
4ee/	hat
8.dd#	ei-
16cc#	-nen
8.b	an-
16cc#	-der-
8b	-en
8a	viel
=8	=8
4g#	lie-
8f#	-ber
8f#	als
4e}	mich.
==	==
!!!AGN: Geselligkeits - Lied, Liebe, Klage
!!!ONB: ESAC (Essen Associative Code) Database: FINK
!!!AMT: simple quadruple
!!!AIN: vox
!!!EED: Helmut Schaffrath
!!!EEV: 1.0
!!Text: Volkslied
!!!RDF**kern: >= above
!!!RDF**kern: <= below
!!!source: Musikalischer Hausschatz der Deutschen. Eine Sammlung von über 1000 Liedern und Gesängen mit Singstimmen und Klavierbegleitung. Leipzig, Litterarisches Verlags-Haus.
!!!page: 569
!!!ENC: Anna Maria Matuszewska
!!!EEV: 2025/03/19
*-	*-
